X:1
T:SIYAHAMBA
T:SAT
%%score 1 2 3
L:1/8
M:4/4
K:G
V:1 treble nm="Soprano"
V:2 treble nm="Alto"
V:3 treble nm="Tenor"
V:1
 z2 z4 DD | B4- BBAB | GGE D2 c2 B | AAAG AABG- | G4- G2 DD | B4- BBAB | GGE D2 c2 B | AAAG AABG- | %8
 G4- G2 GG | G G4- G2- G- | G2 G d2- dcB | AAAG AABG- | G4- G2 GG | G G4- G2- G- | G2 G d2- dcB | %15
 AAAG AABG- | G4- G2 z2 |] %17
V:2
 z2 z4 DD | G4- GGFG | DDE D2 G2 G | FFFE FFGD- | D4- D2 DD | G4- GGFG | DDE D2 G2 G | FFFE FFGD | %8
 DDE =F2- FFF | EE z2 EEEE | DD z2 DDGG | FFFE FFGD | DDE =F2- FFF | EE z2 EEEE | DD z2 DDGG | %15
 FFFE FFGD- | D4- D2 z2 |] %17
V:3
 z2 z4 B,B, | D4- DDCD | B,B,C B,2 E2 E | DDDC DDDB,- | B,4- B,2 B,B, | D4- DDCD | B,B,C B,2 E2 E | %7
 DDDC DDDB, | B,B,C D2- DDD | CC z2 CCCC | B,B, z2 B,B,EE | DDDC DDDB, | B,B,C D2- DDD | %13
 CC z2 CCCC | B,B, z2 B,B,EE | DDDC DDDB,- | B,4- B,2 z2 |] %17

